svgs/sharp-light/id-badge.svg

<svg xmlns="http://www.w3.org/2000/svg" viewBox="0 0 384 512"><!--! Font Awesome Pro 6.6.0 by @fontawesome - https://fontawesome.com License - https://fontawesome.com/license (Commercial License) Copyright 2024 Fonticons, Inc. --><path d="M32 32l0 448 320 0 0-448L32 32zM0 0L32 0 352 0l32 0 0 32 0 448 0 32-32 0L32 512 0 512l0-32L0 32 0 0zM128 64l16 0 96 0 16 0 0 32-16 0-96 0-16 0 0-32zm96 160a32 32 0 1 0 -64 0 32 32 0 1 0 64 0zm-96 0a64 64 0 1 1 128 0 64 64 0 1 1 -128 0zm7.1 128l-21.3 64L80 416l32-96 160 0 32 96-33.7 0-21.3-64-113.9 0z"/></svg>

<svg xmlns="http://www.w3.org/2000/svg" viewBox="0 0 384 512"><!--! Font Awesome Pro 6.4.2 by @fontawesome - https://fontawesome.com License - https://fontawesome.com/license (Commercial License) Copyright 2023 Fonticons, Inc. --><path d="M32 32V480H352V32H32zM0 0H32 352h32V32 480v32H352 32 0V480 32 0zM128 64h16 96 16V96H240 144 128V64zm96 160a32 32 0 1 0 -64 0 32 32 0 1 0 64 0zm-96 0a64 64 0 1 1 128 0 64 64 0 1 1 -128 0zm7.1 128l-21.3 64H80l32-96H272l32 96H270.3l-21.3-64H135.1z"/></svg>
